X: 19244
T: Italian Gallopade
R: polka
M: 2/4
K: Dmajor
d/d/d/d/ dA|BA BA|f/f/f/f/ fe|dA FA|
d/d/d/d/ dA|BA BA|fd/f/ ec/e/|d2 D2||
Ad ce|df eg|fd/f/ ec/e/|dA FA|
Ad ce|df eg|fd/f/ ec/e/|d2 D2||

